X:1
T:Banks of Green Willow
M:3/4
L:1/8
K:G
 DD| G3 A_B A| G2 D2 D2| E2 F G2 F| D2 B,2 G2| G3- A_B A|G-F D3 D|\
D-E G2 G2| A2 G2||
